X: 85
T:Gracious Lady. JaW.085
M:C|
Q:1/4=180
C:"...A Good Tune"
S:James Winder Ms, Lancashire, 1835-41
R:Air
O:England
A:Wyresdale,Lancashire
H:1/8
Z:vmp.Chris Partington, Aug 2004
K:F
F3G A2d2|c2A2-A2(d2|c2)A2-A2GF|G4-G2A2|!
F3G A2d2|c2A2-A2(d2|c2)A2(BA)(GF)|F4-F4:|!
|:f2f2(gf)(ed)|f2f2(gf)(ed)|(ef)g2G4|!
F3G A2d2|c2A2-A2(d2|c2)A2(BA)(GF)|F4-F4:|]
